X:0821
M:C
L:1/8
Q:1/2=104
K:D
g|fdag     fddf|e=cgf ecce|fdag     fdec|dBAd FDD
g|fdag     fddf|e=cgf ecce|dfeg     fagb|afge fdd|]

